assets/icons/product-selected.svg

<svg width="18" height="18" viewBox="0 0 18 18" fill="none" xmlns="http://www.w3.org/2000/svg">
<rect x="0.75" y="0.75" width="16.5" height="16.5" rx="3.25" fill="white"/>
<rect x="0.75" y="0.75" width="16.5" height="16.5" rx="3.25" stroke="#3971F3" stroke-width="1.5"/>
<path d="M3.89841 8.48542L6.87433 10.8567L14.286 4.02791C14.286 4.02791 14.7835 3.57398 15.2174 3.92804C15.3463 4.03517 15.4952 4.33657 15.1593 4.81047L7.42267 13.8762C7.42267 13.8762 6.82894 14.6878 6.12445 13.8671L2.7854 9.35695C2.7854 9.35695 2.38958 8.74688 2.88526 8.38011C3.0523 8.25846 3.4336 8.06781 3.89841 8.48542Z" fill="#3971F3"/>
</svg>

<svg xmlns="http://www.w3.org/2000/svg" width="18" height="18" fill="none" data-c="1"><rect width="16.5" height="16.5" x=".75" y=".75" fill="#fff" rx="3.25"/><rect width="16.5" height="16.5" x=".75" y=".75" stroke="#3971F3" stroke-width="1.5" rx="3.25"/><path fill="#3971F3" d="m3.898 8.485 2.976 2.372 7.412-6.83s.498-.453.931-.099c.13.107.278.409-.058.882l-7.736 9.066s-.594.812-1.299-.009l-3.339-4.51s-.395-.61.1-.977c.167-.122.549-.312 1.013.105"/></svg>
